X:405
T:Andy Kerrin's
M:C
L:1/8
S:Paddy O'Neill
Z:CRAIC cruninnu on Feb 1 1997
R:SetDance
K:Em
B2ED EFGA|B2BA B2e2|B2e2B2 AB|GB FB E2ED|\
E2ED EFGA|B2BA B2e2|B2e2B2 AB|GB FB E3f|:\
g2B2 dBGB|cABG E3E|DEFG ABcd|egd^c d2 (3def|\
g2B2 dBGB|cABG EGFE|DEFG AcBA|1 G2B2 G3f:|2 G2B2 G4||
